api.svg

<svg fill="currentColor" viewBox="0 0 24 24"><path d="M7 7H5a2 2 0 0 0-2 2v8h2v-4h2v4h2V9a2 2 0 0 0-2-2m0 4H5V9h2m7-2h-4v10h2v-4h2a2 2 0 0 0 2-2V9a2 2 0 0 0-2-2m0 4h-2V9h2m6 0v6h1v2h-4v-2h1V9h-1V7h4v2Z"/></svg>

<svg  viewBox="0 0 24 24" fill="currentColor"><path  d="M7 7H5A2 2 0 0 0 3 9V17H5V13H7V17H9V9A2 2 0 0 0 7 7M7 11H5V9H7M14 7H10V17H12V13H14A2 2 0 0 0 16 11V9A2 2 0 0 0 14 7M14 11H12V9H14M20 9V15H21V17H17V15H18V9H17V7H21V9Z"/></svg>
